src/icons/Google AdSense.svg

<svg width="256" height="252" viewBox="0 0 256 252" xmlns="http://www.w3.org/2000/svg" preserveAspectRatio="xMidYMid"><defs><linearGradient x1=".041%" y1="50.091%" x2="100.078%" y2="50.091%" id="a"><stop stop-color="#4284F0" offset="0%"/><stop stop-color="#4487F4" offset="100%"/></linearGradient><linearGradient x1="28.448%" y1="81.561%" x2="55.474%" y2="42.237%" id="b"><stop stop-color="#F5B406" offset="0%"/><stop stop-color="#F4B913" offset="100%"/></linearGradient></defs><path d="M254.2 154.4L209.4 252H102.3l58.6-126h75c14.6 0 24.3 15.1 18.3 28.4z" fill="#437DE6"/><path d="M235.9 127.8c6.3 0 12 3.1 15.4 8.4 3.4 5.3 3.8 11.8 1.2 17.5l-44.2 96.6H107.2l56.9-122.5h71.8zm0-1.8H163l-58.6 126h105l44.7-97.6c6.1-13.3-3.6-28.4-18.2-28.4z" fill="#196CEA"/><path d="M62.1 1.8s56.2 61 69.4 67.3L149.8 29c6.4-12.7-1.8-27.5-17.1-27.3l-70.6.1z" fill="url(#a)" transform="translate(102 126)"/><path d="M112.9 10.9L0 252h104.4L165 121.7 221.6 0H130c-7.3 0-14 4.2-17.1 10.9z" fill="url(#b)"/><path d="M218.8 1.8L163.4 121l-60.1 129.3H2.8L114.5 11.6c2.8-6 8.9-9.9 15.5-9.9h88.8v.1zm2.8-1.8H130c-7.3 0-14 4.2-17.1 10.9L0 252h104.4L165 121.7 221.6 0z" fill="#F3AA00"/></svg>

<?xml version="1.0" encoding="UTF-8" standalone="no"?>
<svg width="256px" height="252px" viewBox="0 0 256 252" version="1.1" xmlns="http://www.w3.org/2000/svg" xmlns:xlink="http://www.w3.org/1999/xlink" preserveAspectRatio="xMidYMid">
    <defs>
        <linearGradient x1="0.0407161537%" y1="50.0909506%" x2="100.078192%" y2="50.0909506%" id="linearGradient-1">
            <stop stop-color="#4284F0" offset="0%"></stop>
            <stop stop-color="#4487F4" offset="100%"></stop>
        </linearGradient>
        <linearGradient x1="28.4480596%" y1="81.5611444%" x2="55.4742329%" y2="42.2373747%" id="linearGradient-2">
            <stop stop-color="#F5B406" offset="0%"></stop>
            <stop stop-color="#F4B913" offset="100%"></stop>
        </linearGradient>
    </defs>
	<g>
		<g transform="translate(102.000000, 126.000000)">
			<path d="M152.2,28.4 L107.4,126 L0.3,126 L58.9,0 L133.9,0 C148.5,0 158.2,15.1 152.2,28.4 L152.2,28.4 L152.2,28.4 Z" fill="#437DE6"></path>
			<path d="M133.9,1.8 C140.2,1.8 145.9,4.9 149.3,10.2 C152.7,15.5 153.1,22 150.5,27.7 L106.3,124.3 L5.2,124.3 L62.1,1.8 L133.9,1.8 L133.9,1.8 Z M133.9,0 L61,0 L2.4,126 L107.4,126 L152.1,28.4 C158.2,15.1 148.5,0 133.9,0 L133.9,0 L133.9,0 Z" fill="#196CEA"></path>
			<path d="M62.1,1.8 C62.1,1.8 118.3,62.8 131.5,69.1 L149.8,29 C156.2,16.3 148,1.5 132.7,1.7 L62.1,1.8 L62.1,1.8 Z" fill="url(#linearGradient-1)"></path>
		</g>
		<g>
			<path d="M112.9,10.9 L0,252 L104.4,252 L165,121.7 L221.6,0 L130,0 C122.7,0 116,4.2 112.9,10.9 L112.9,10.9 L112.9,10.9 Z" fill="url(#linearGradient-2)"></path>
			<path d="M218.8,1.8 L163.4,121 L103.3,250.3 L2.8,250.3 L114.5,11.6 C117.3,5.6 123.4,1.7 130,1.7 L218.8,1.7 L218.8,1.8 L218.8,1.8 Z M221.6,0 L130,0 C122.7,0 116,4.2 112.9,10.9 L0,252 L104.4,252 L165,121.7 L221.6,0 L221.6,0 Z" fill="#F3AA00"></path>
		</g>
	</g>
</svg>
